X:1
T:Title
%%score { ( 1 3 4 ) | ( 2 5 ) }
L:1/8
M:4/4
K:G
V:1 treble nm="Grand Piano"
V:3 treble 
V:4 treble 
V:2 bass 
V:5 bass 
V:1
 z4 z2 z[Q:1/4=104] [B,D] | [B,D]2 [DG]A B2 AG | [FA]2 [Fd][Fd] B3 G | [Gc]2 [Gd][Ge] d2 BG | %4
 F2 [^CG][CE] D3 D | A2 [Fd][Fc] B2 GG |[M:7/8] [FA]2 [Fd] [Fc] B3 |[M:1/8] G | %8
[M:4/4] [Gc]2 [Gd][Ge] [Gd]2 [GB]G |[M:7/8] A>A B2 [B,DG]3 |[M:1/4] d2 |[M:4/4] d6 z2 | G6 z2 | %13
 A6 z2 |[M:19/16] D/-D/-D/-D/-D/-D/-D/-D/-D/-D/-D/-D/-D/-D-<D z |[M:4/4] [B,D]2 [DG]A B2 cd | %16
 [Fd]2 [FA][Fc] [GB]3 [Gd] | [Ge]2 [Ge][Ge] d2 BG |[M:7/8] A>A B2 [B,DG]3 |] %19
V:2
 z4 z2 z [G,,G,] | [G,,G,]2 [B,,G,][D,F,D] [G,D]2 [G,CD][G,B,D] | %2
 [D,D]2 [D,A,][D,D][K:treble] [G,DG]3 [G,B,] | %3
 [E,C]2 [D,B,][C,C][K:treble] [G,B,G]2 [G,DG][K:bass][G,B,E] | %4
 [A,D]2 [A,,E,][A,,G,] [D,F,]3 [D,F,] | %5
 [D,F,D]2 [D,A,][D,D][K:treble] [G,DG]2 [G,B,D][K:bass][G,B,D] | %6
[M:7/8] [D,D]2 [D,A,] [D,D][K:treble] [G,DG]3 |[M:1/8] [G,B,] | %8
[M:4/4][K:bass] [E,C]2 [D,B,][C,C] [D,B,]2 [D,D][D,B,D] |[M:7/8] [D,CD]>[D,CD] [D,D]2 G,,3 | %10
[M:1/4][K:treble] [G,B,G]2 |[M:4/4] [G,B,G]>[G,B,] [G,B,]2 G,->[G,D] [G,B,G]2 | %12
 [G,B,D]>[G,B,] [C,C]2 G,,2 [G,,G,]2 | [D,F,D]>[D,F,] [D,F,]2 [A,,E,]2 [A,,G,]2 | %14
[M:19/16] [D,F,]>[D,F,][D,G,]-<[D,G,][D,A,]/-[D,A,]/-[D,A,]/-[D,A,]/-[D,A,]/-[D,A,]-<[D,A,][D,F,C] | %15
[M:4/4] [G,,G,]2 [B,,G,][D,F,D][K:treble] [G,D]2 [G,A,D][G,B,G] | %16
 [D,A,]2 [D,D][D,D] [G,D]3 [G,B,] | [C,C]2 [C,C][C,C][K:treble] [G,B,G]2 [G,DG][K:bass][G,B,D] | %18
[M:7/8] [D,CD]>[D,CD] [D,D]2 G,,3 |] %19
V:3
 x8 | x8 | x8 | x8 | x8 | x8 |[M:7/8] x7 |[M:1/8] x |[M:4/4] x8 |[M:7/8] x7 |[M:1/4] x2 | %11
[M:4/4] z z/ G/ G2 z z/ B/ d2 | z z/ D/ E2 [B,D]2 [DB]2 | z z/ D/ D2 z z/ G/ [^CE]2 | %14
[M:19/16] z/ z A,/B,-<B,C/-C/-C/-C/-C/-C-<CD |[M:4/4] x8 | x8 | x8 |[M:7/8] x7 |] %19
V:4
 x8 | x8 | x8 | x8 | x8 | x8 |[M:7/8] x7 |[M:1/8] x |[M:4/4] x8 |[M:7/8] x7 |[M:1/4] x2 | %11
[M:4/4] z4 G2 z2 | x8 | z4 ^C2 z2 |[M:19/16] x19/2 |[M:4/4] x8 | x8 | x8 |[M:7/8] x7 |] %19
V:5
 x8 | x8 | x4[K:treble] x4 | x4[K:treble] x3[K:bass] x | x8 | x4[K:treble] x3[K:bass] x | %6
[M:7/8] x4[K:treble] x3 |[M:1/8] x |[M:4/4][K:bass] x8 |[M:7/8] x7 |[M:1/4][K:treble] x2 | %11
[M:4/4] z4 B,2 z2 | x8 | x8 |[M:19/16] x19/2 |[M:4/4] x4[K:treble] x4 | x8 | %17
 x4[K:treble] x3[K:bass] x |[M:7/8] x7 |] %19

